X:1
T:Alexander (Gwyllt), 87.87.87.877
T:Alexander (Gwyllt), 87.87.87.877
T:John Roberts (1822-1877)
T:Public Domain Courtesy of the Cyber Hymnal™
C:John Roberts (1822-1877)
Z:Public Domain
Z:Courtesy of the Cyber Hymnal™
%%score ( 1 2 ) ( 3 4 )
L:1/8
Q:1/4=104
M:4/4
K:A
V:1 treble 
V:2 treble 
V:3 bass 
V:4 bass 
V:1
 ^F2 [^F^c]2 [=D=B]2 [^C^c]2 | ([^C=A][^E^G]) (^F^G) [^F=A]2 [E^G]2 | %2
 [^G^c]2 [^F=A]2 [^F=B]2 (^c=B) | [^F=A]2 [^E^G]2 ^F4 | [=D^F]2 [=E^c]2 [=E=B]2 [=E^c]2 | %5
 (=A^G) (^F^G) [=E=A]2 [=E^G]2 | [=E^c]2 [^F=A]2 [^G=B]2 ([=A^c][^G=B]) | [^F=A]2 [^E^G]2 ^F4 | %8
 [=E^c]2 [=A^c]2 [^G=B]2 [^G=B]2 | [^C=A]2 [^F=A]2 [^E^G]2 [E^G]2 | ^F2 (^c=B) [^F=A]2 [^F=A]2 | %11
 [^F=B]2 [^F=B]2 [^E^c]4 | [=E^c]2 [=E=A]2 [=E^G]2 ([=E=A][^G=B]) | %13
 [=A^c]2 [=A^c]2 (=B=A) [=E^G]2 | [=E^G]2 [=E^G]2 [=E=A]2 [=E=A]2 | %15
 [=E=B]2 ([=E^c][=D=B]) =A2 [^E^G]2 | [^G^c]2 [^F=A]2 [^F=B]2 (^c=B) | [^F=A]2 [^E^G]2 ^F4 |] %18
V:2
 ^F2 x6 | x2 ^F2 x4 | x6 ^F2 | x4 ^F4 | x8 | =E2 ^C2 x4 | x8 | x4 ^F4 | x8 | x8 | ^F2 ^E2 x4 | x8 | %12
 x8 | x4 ^F2 x2 | x8 | x4 (^C^F) x2 | x6 ^F2 | x4 ^F4 |] %18
V:3
 F,2 [F,A,]2 [F,G,]2 [^E,G,]2 | F,[B,D] ([A,C][G,B,]) (A,B,) [C,C]2 | %2
 [^E,C]2 [F,C]2 (F,G,) ([A,,A,][B,,D]) | [C,C]2 (CB,) [F,A,]4 | [D,A,]2 [A,,A,]2 [E,G,]2 A,2 | %5
 [C,A,]2 (A,B,) [E,C]2 [E,B,]2 | A,2 [F,C]2 [E,E]2 ([A,,E][B,,D]) | [C,C][B,,D] (G,B,) [F,A,]4 | %8
 [A,C]2 (A,C) [E,E]2 [E,E]2 | [F,A,]2 (F,A,) [C,C]2 [C,C]2 | (A,F,) [C,G,]2 (A,B,) [E,C]2 | %11
 [D,F,]2 [D,B,]2 [C,G,]4 | [A,,A,]2 C2 B,2 ([C,C][B,,D]) | [A,,E]2 [A,E]2 (DC) [E,B,]2 | %14
 [E,B,]2 B,2 [C,A,]2 [A,C]2 | [E,G,]2 ([A,,A,][B,,G,]) (F,A,) [C,C]2 | %16
 [^E,C]2 [F,C]2 [D,B,]2 ([A,,F,][B,,G,]) | (A,C) (CB,) [F,,F,A,]4 |] %18
V:4
 F,2 x6 | (F, x2 F,2) x3 | x4 D,2 x2 | x2 C,2 x4 | x6 A,2 | x2 F,2 x4 | A,2 x6 | x2 C,2 x4 | %8
 x2 A,2 x4 | x2 F,2 x4 | D,2 x F,2 x3 | x8 | x2 (A,,C,) (E,D,) x2 | x4 D,2 x2 | x2 (E,D,) x4 | %15
 x4 C,2 x2 | x8 | C,2 C,2 x4 |] %18

